X: 2593
T: Ballyvourney, The
R: polka
M: 2/4
K: Edorian
|:EF/G/ FE|FG BA|EF/G/ FE|FA DA|
EF/G/ FE|FG BA|c2 Bc|d2 d2:|
|:dA FE|DF Ad|ce/c/ Bc|A2 AB/c/|
dA FE|DF Ad|ce/c/ Bc|d2 dB/c/:|

